packages/core/src/svgs/tokens/mono/GLQ.svg

<svg width="24" height="24" viewBox="0 0 24 24" fill="none" xmlns="http://www.w3.org/2000/svg">
<path d="M16.7418 21.4101H8.49592C7.67252 21.4101 6.90205 20.9514 6.48447 20.2339L2.30865 13.1468C2.10664 12.8079 2 12.4208 2 12.0264C2 11.6318 2.10664 11.2447 2.30865 10.9059L6.48447 3.71292C6.68039 3.36742 6.96552 3.08089 7.31004 2.88329C7.65457 2.68567 8.04585 2.58423 8.44299 2.58955H16.7418C17.5652 2.58955 18.3886 3.04831 18.8003 3.76585L21.7998 8.91211C21.8468 8.96504 21.8468 9.06503 21.7998 9.11796C21.7998 9.17089 21.7409 9.21793 21.6938 9.27088L20.6587 9.82955C20.1401 10.1249 19.5265 10.2054 18.9493 10.0537C18.3721 9.90188 17.8774 9.53011 17.5709 9.01797L15.9241 6.11842H12.5893V17.8813H15.9184L17.6239 14.8818L14.7832 13.2467C14.4906 13.096 14.2426 12.8711 14.0641 12.5944C13.8855 12.3179 13.7826 11.9992 13.7657 11.6705V8.91211C13.7657 8.81212 13.8187 8.75919 13.8656 8.71213C13.9716 8.6592 14.0245 8.6592 14.1244 8.71213L21.0763 12.5879C21.2934 12.7013 21.4839 12.8595 21.635 13.0522C21.786 13.245 21.8943 13.4676 21.9526 13.7054C22.0527 14.1701 21.9997 14.676 21.7409 15.1347L18.7532 20.2398C18.5587 20.6016 18.2678 20.9025 17.9128 21.1092C17.5577 21.3157 17.1524 21.4199 16.7418 21.4101ZM8.49592 20.822H16.7418C17.4121 20.822 18.0356 20.5456 18.3886 19.981L21.3881 14.8818C21.588 14.5759 21.641 14.2172 21.535 13.8642C21.4952 13.6916 21.4198 13.5291 21.3134 13.3872C21.2071 13.2454 21.0722 13.1274 20.9175 13.0408L19.5295 12.2763L14.3539 9.37092V11.6646C14.3539 12.1293 14.7361 12.5879 15.1478 12.8409L18.1885 14.5759C18.2885 14.6289 18.3415 14.7818 18.2885 14.9289L16.3829 18.3224C16.3301 18.4283 16.1711 18.4695 16.1183 18.4695H12.2954C12.1424 18.4695 12.0013 18.3518 12.0013 18.1989V5.85375C12.0013 5.70084 12.1307 5.53028 12.2836 5.53028H16.1183C16.2241 5.53028 16.3301 5.62438 16.3829 5.67731L18.0886 8.71213C18.3311 9.11 18.7165 9.40001 19.1661 9.52242C19.6157 9.64497 20.0951 9.59077 20.5058 9.37092L21.3292 8.91211L18.4473 4.01875C18.2516 3.75174 17.9944 3.53587 17.6974 3.38946C17.4005 3.24305 17.0726 3.17041 16.7418 3.17771H8.44887C7.82544 3.17771 7.26082 3.40708 6.94911 3.96581L2.77328 11.1588C2.62101 11.4226 2.54084 11.7217 2.54084 12.0264C2.54084 12.3309 2.62101 12.6301 2.77328 12.8938L6.94911 19.981C7.26082 20.5456 7.83132 20.822 8.49592 20.822ZM9.03113 18.3401L5.3023 12.1762C5.27708 12.1293 5.26388 12.0768 5.26388 12.0234C5.26388 11.97 5.27708 11.9174 5.3023 11.8705L9.08995 5.70084C9.14288 5.60085 9.24287 5.54792 9.39579 5.60085C9.50159 5.64791 9.64871 5.75377 9.64871 5.85375V18.24C9.64871 18.54 9.1076 18.5048 9.03113 18.3401ZM5.93162 11.9999L9.06054 17.0755V6.92418L5.93162 11.9999Z" fill="white"/>
</svg>

<svg xmlns="http://www.w3.org/2000/svg" width="24" height="24" fill="none" viewBox="0 0 24 24">
    <path fill="#fff" d="M16.742 21.41H8.496a2.35 2.35 0 0 1-2.012-1.176L2.31 13.147a2.19 2.19 0 0 1 0-2.241l4.175-7.193A2.22 2.22 0 0 1 8.443 2.59h8.299c.823 0 1.647.458 2.058 1.176l3 5.146a.17.17 0 0 1 0 .206c0 .053-.06.1-.106.153l-1.035.559a2.28 2.28 0 0 1-3.088-.812l-1.647-2.9H12.59v11.763h3.33l1.705-3-2.84-1.634a1.88 1.88 0 0 1-1.018-1.576V8.912c0-.1.053-.153.1-.2.106-.053.159-.053.258 0l6.952 3.876a1.72 1.72 0 0 1 .877 1.117c.1.465.047.971-.212 1.43l-2.988 5.105a2.23 2.23 0 0 1-2.011 1.17m-8.246-.588h8.246c.67 0 1.294-.276 1.647-.841l3-5.1c.199-.305.252-.664.146-1.017a1.27 1.27 0 0 0-.617-.823l-1.389-.765-5.175-2.905v2.294c0 .464.382.923.794 1.176l3.04 1.735c.1.053.154.206.1.353l-1.905 3.393c-.053.106-.212.148-.265.148h-3.823c-.153 0-.294-.118-.294-.271V5.854c0-.153.13-.324.283-.324h3.834c.106 0 .212.094.265.147l1.706 3.035a1.823 1.823 0 0 0 2.417.659l.823-.459-2.882-4.893a2.06 2.06 0 0 0-1.705-.841H8.449c-.624 0-1.188.23-1.5.788l-4.176 7.193a1.74 1.74 0 0 0 0 1.735L6.95 19.98c.312.565.882.841 1.547.841m.535-2.482-3.729-6.164a.32.32 0 0 1 0-.306L9.09 5.7c.053-.1.153-.152.306-.1.106.048.253.154.253.254V18.24c0 .3-.541.265-.618.1M5.931 12l3.13 5.076V6.924z"/>
</svg>
